X: 18557
T: I Have Two Yellow Goats
R: polka
M: 2/4
K: Amajor
|:E(A A)B|c2 BA|cB BA/B/|cB ce|
E(A A)B|c2 BA|c(3B/c/B/ AG|A2 A2:|
|:f>e fa|e3 d|cB c/B/A/B/|cB ce|
f>e fa|e2 ed|cc/B/ AG|1 A2 Ae:|2 A2 A2||

